toothbrush.svg

<svg fill="currentColor" viewBox="0 0 24 24"><path d="m12.91 6.43 2.12 2.12 1.06-1.05-1.06-1.07 2.83-2.83 1.06 1.06L20 3.6l-2.14-2.1M3 20.57 4.43 22 14.5 11.9l2.13-.71 4.77-4.76c.78-.78.78-2.05 0-2.83l-5.85 5.84-2.12.71Z"/></svg>

<svg  viewBox="0 0 24 24" fill="currentColor"><path  d="M12.91 6.43L15.03 8.55L16.09 7.5L15.03 6.43L17.86 3.6L18.92 4.66L20 3.6L17.86 1.5M3 20.57L4.43 22L14.5 11.9L16.63 11.19L21.4 6.43C22.18 5.65 22.18 4.38 21.4 3.6L15.55 9.44L13.43 10.15Z"/></svg>
